Newaita-dark/mimetypes/16/application-x-chm.svg

<?xml version="1.0" encoding="UTF-8"?>
<svg xmlns="http://www.w3.org/2000/svg" xmlns:xlink="http://www.w3.org/1999/xlink" width="16pt" height="16pt" viewBox="0 0 16 16" version="1.1">
<defs>
<linearGradient id="linear0" gradientUnits="userSpaceOnUse" x1="254" y1="233.5" x2="254" y2="254.666672" gradientTransform="matrix(0.031253,0,0,0.031253,0.33076,6.719392)">
<stop offset="0" style="stop-color:rgb(0%,0%,0%);stop-opacity:0.27451;"/>
<stop offset="1" style="stop-color:rgb(0%,0%,0%);stop-opacity:0;"/>
</linearGradient>
<radialGradient id="radial0" gradientUnits="userSpaceOnUse" cx="450.908936" cy="189.579361" fx="450.908936" fy="189.579361" r="21.166656" gradientTransform="matrix(0.0000000870852,-0.0390662,-0.0703192,-0.0000000507693,24.742285,31.797665)">
<stop offset="0" style="stop-color:rgb(0%,0%,0%);stop-opacity:0.313725;"/>
<stop offset="0.222222" style="stop-color:rgb(0%,0%,0%);stop-opacity:0.27451;"/>
<stop offset="1" style="stop-color:rgb(0%,0%,0%);stop-opacity:0;"/>
</radialGradient>
<radialGradient id="radial1" gradientUnits="userSpaceOnUse" cx="450.908936" cy="189.579361" fx="450.908936" fy="189.579361" r="21.166656" gradientTransform="matrix(-0.0000000870852,0.0390662,0.0703192,0.0000000507693,-9.196524,-3.76374)">
<stop offset="0" style="stop-color:rgb(0%,0%,0%);stop-opacity:0.313725;"/>
<stop offset="0.222222" style="stop-color:rgb(0%,0%,0%);stop-opacity:0.27451;"/>
<stop offset="1" style="stop-color:rgb(0%,0%,0%);stop-opacity:0;"/>
</radialGradient>
<radialGradient id="radial2" gradientUnits="userSpaceOnUse" cx="450.908936" cy="189.579361" fx="450.908936" fy="189.579361" r="21.166656" gradientTransform="matrix(-0.0000000870852,-0.0390662,0.0703192,-0.0000000507693,-9.196524,31.797665)">
<stop offset="0" style="stop-color:rgb(0%,0%,0%);stop-opacity:0.313725;"/>
<stop offset="0.222222" style="stop-color:rgb(0%,0%,0%);stop-opacity:0.27451;"/>
<stop offset="1" style="stop-color:rgb(0%,0%,0%);stop-opacity:0;"/>
</radialGradient>
<radialGradient id="radial3" gradientUnits="userSpaceOnUse" cx="450.908936" cy="189.579361" fx="450.908936" fy="189.579361" r="21.166656" gradientTransform="matrix(0.0000000870852,0.0390662,-0.0703192,0.0000000507693,24.742284,-3.763741)">
<stop offset="0" style="stop-color:rgb(0%,0%,0%);stop-opacity:0.313725;"/>
<stop offset="0.222222" style="stop-color:rgb(0%,0%,0%);stop-opacity:0.27451;"/>
<stop offset="1" style="stop-color:rgb(0%,0%,0%);stop-opacity:0;"/>
</radialGradient>
<linearGradient id="linear1" gradientUnits="userSpaceOnUse" x1="940" y1="1695.118164" x2="940" y2="175.118118" gradientTransform="matrix(0.00826902,0,0,0.00826902,0,0)">
<stop offset="0" style="stop-color:rgb(64.705882%,83.921569%,65.490196%);stop-opacity:1;"/>
<stop offset="1" style="stop-color:rgb(78.431373%,90.196078%,78.823529%);stop-opacity:1;"/>
</linearGradient>
<linearGradient id="linear2" gradientUnits="userSpaceOnUse" x1="249.189423" y1="233.5" x2="249.189423" y2="254.666687" gradientTransform="matrix(0.0149471,0,0,0.0546927,7.521211,-8.180455)">
<stop offset="0" style="stop-color:rgb(0%,0%,0%);stop-opacity:0.27451;"/>
<stop offset="1" style="stop-color:rgb(0%,0%,0%);stop-opacity:0;"/>
</linearGradient>
<linearGradient id="linear3" gradientUnits="userSpaceOnUse" x1="338.666656" y1="233.5" x2="338.666656" y2="-168.666672" gradientTransform="matrix(0.031253,0,0,0.031253,0,6.719392)">
<stop offset="0" style="stop-color:rgb(40%,73.333333%,41.568627%);stop-opacity:1;"/>
<stop offset="1" style="stop-color:rgb(50.588235%,78.039216%,51.764706%);stop-opacity:1;"/>
</linearGradient>
<linearGradient id="linear4" gradientUnits="userSpaceOnUse" x1="920" y1="1695.118164" x2="920" y2="175.118118" >
<stop offset="0" style="stop-color:rgb(40%,73.333333%,41.568627%);stop-opacity:1;"/>
<stop offset="1" style="stop-color:rgb(50.588235%,78.039216%,51.764706%);stop-opacity:1;"/>
</linearGradient>
</defs>
<g id="surface1">
<path style=" stroke:none;fill-rule:nonzero;fill:url(#linear0);" d="M 3.96875 14.015625 L 11.578125 14.015625 L 11.578125 14.679688 L 3.96875 14.679688 Z M 3.96875 14.015625 "/>
<path style=" stroke:none;fill-rule:nonzero;fill:url(#radial0);" d="M 11.578125 14.015625 L 12.898438 14.015625 L 12.898438 13.355469 L 11.578125 13.355469 Z M 11.578125 14.015625 "/>
<path style=" stroke:none;fill-rule:nonzero;fill:url(#radial1);" d="M 3.96875 14.015625 L 2.644531 14.015625 L 2.644531 14.679688 L 3.96875 14.679688 Z M 3.96875 14.015625 "/>
<path style=" stroke:none;fill-rule:nonzero;fill:url(#radial2);" d="M 3.96875 14.015625 L 2.644531 14.015625 L 2.644531 13.355469 L 3.96875 13.355469 Z M 3.96875 14.015625 "/>
<path style=" stroke:none;fill-rule:nonzero;fill:url(#radial3);" d="M 11.578125 14.015625 L 12.898438 14.015625 L 12.898438 14.679688 L 11.578125 14.679688 Z M 11.578125 14.015625 "/>
<path style=" stroke:none;fill-rule:nonzero;fill:url(#linear1);" d="M 9.269531 1.449219 L 3.308594 1.449219 C 2.941406 1.449219 2.644531 1.742188 2.644531 2.109375 L 2.644531 13.355469 C 2.644531 13.722656 2.941406 14.015625 3.308594 14.015625 L 12.238281 14.015625 C 12.605469 14.015625 12.898438 13.722656 12.898438 13.355469 L 12.898438 5.078125 Z M 9.269531 1.449219 "/>
<path style=" stroke:none;fill-rule:nonzero;fill:rgb(0%,0%,0%);fill-opacity:0.235294;" d="M 2.644531 13.097656 L 2.644531 13.355469 C 2.644531 13.722656 2.941406 14.015625 3.308594 14.015625 L 12.238281 14.015625 C 12.605469 14.015625 12.898438 13.722656 12.898438 13.355469 L 12.898438 13.097656 C 12.898438 13.464844 12.605469 13.761719 12.238281 13.761719 L 3.308594 13.761719 C 2.941406 13.761719 2.644531 13.464844 2.644531 13.097656 Z M 2.644531 13.097656 "/>
<path style=" stroke:none;fill-rule:nonzero;fill:url(#linear2);" d="M 9.261719 4.589844 L 12.402344 4.589844 L 12.898438 5.085938 L 12.898438 5.746094 L 9.261719 5.746094 Z M 9.261719 4.589844 "/>
<path style=" stroke:none;fill-rule:nonzero;fill:rgb(96.470588%,96.470588%,96.470588%);fill-opacity:0.588235;" d="M 3.308594 1.449219 C 2.941406 1.449219 2.644531 1.742188 2.644531 2.109375 L 2.644531 2.359375 C 2.644531 1.992188 2.941406 1.695312 3.308594 1.695312 L 9.269531 1.695312 L 12.898438 5.324219 L 12.898438 5.078125 L 9.269531 1.449219 Z M 3.308594 1.449219 "/>
<path style=" stroke:none;fill-rule:nonzero;fill:url(#linear3);" d="M 12.898438 5.078125 L 9.269531 1.449219 L 9.269531 4.414062 C 9.269531 4.78125 9.566406 5.078125 9.933594 5.078125 Z M 12.898438 5.078125 "/>
<path style=" stroke:none;fill-rule:nonzero;fill:rgb(0%,0%,0%);fill-opacity:0.235294;" d="M 9.269531 4.257812 L 9.269531 4.414062 C 9.269531 4.78125 9.566406 5.078125 9.933594 5.078125 L 12.898438 5.078125 L 12.742188 4.921875 L 9.933594 4.921875 C 9.566406 4.921875 9.269531 4.625 9.269531 4.257812 Z M 9.269531 4.257812 "/>
<path style=" stroke:none;fill-rule:nonzero;fill:rgb(100%,100%,100%);fill-opacity:0.392157;" d="M 9.269531 1.449219 L 9.269531 1.695312 L 12.652344 5.078125 L 12.898438 5.078125 Z M 9.269531 1.449219 "/>
<path style=" stroke:none;fill-rule:nonzero;fill:rgb(12.941177%,12.941177%,12.941177%);fill-opacity:1;" d="M 9.269531 1.402344 C 9.246094 1.402344 9.222656 1.421875 9.222656 1.449219 L 9.222656 4.414062 C 9.222656 4.808594 9.539062 5.125 9.933594 5.125 L 12.898438 5.125 C 12.917969 5.125 12.9375 5.113281 12.941406 5.09375 C 12.949219 5.078125 12.945312 5.058594 12.933594 5.042969 L 9.304688 1.414062 C 9.296875 1.40625 9.28125 1.402344 9.269531 1.402344 Z M 9.316406 1.5625 L 12.785156 5.03125 L 9.933594 5.03125 C 9.589844 5.03125 9.316406 4.757812 9.316406 4.414062 Z M 9.316406 1.5625 "/>
<path style=" stroke:none;fill-rule:nonzero;fill:rgb(12.941177%,12.941177%,12.941177%);fill-opacity:1;" d="M 3.308594 1.402344 C 2.914062 1.402344 2.597656 1.71875 2.597656 2.109375 L 2.597656 13.355469 C 2.597656 13.746094 2.914062 14.0625 3.308594 14.0625 L 12.238281 14.0625 C 12.628906 14.0625 12.945312 13.746094 12.945312 13.355469 L 12.945312 5.078125 C 12.945312 5.0625 12.941406 5.050781 12.933594 5.042969 L 9.304688 1.414062 C 9.296875 1.40625 9.285156 1.402344 9.269531 1.402344 Z M 3.308594 1.496094 L 9.25 1.496094 L 12.851562 5.097656 L 12.851562 13.355469 C 12.851562 13.695312 12.578125 13.96875 12.238281 13.96875 L 3.308594 13.96875 C 2.964844 13.96875 2.691406 13.695312 2.691406 13.355469 L 2.691406 2.109375 C 2.691406 1.769531 2.964844 1.496094 3.308594 1.496094 Z M 3.308594 1.496094 "/>
<path style="fill-rule:nonzero;fill:url(#linear4);stroke-width:11.338583;stroke-linecap:round;stroke-linejoin:round;stroke:rgb(12.941177%,12.941177%,12.941177%);stroke-opacity:1;stroke-miterlimit:4;" d="M 920.227132 694.894307 C 908.889631 694.894307 899.91411 703.869829 899.91411 715.207329 L 899.91411 754.888581 C 899.91411 766.226082 908.889631 775.201603 920.227132 775.201603 L 959.908384 775.201603 C 971.245884 775.201603 980.221406 766.226082 980.221406 754.888581 L 980.221406 715.207329 C 980.221406 703.869829 971.245884 694.894307 959.908384 694.894307 Z M 880.073484 855.036503 C 868.735983 855.036503 860.232858 864.012025 860.232858 875.349525 L 860.232858 915.030777 C 860.232858 926.368278 868.735983 935.343799 880.073484 935.343799 L 899.91411 935.343799 L 899.91411 1175.320895 L 880.073484 1175.320895 C 868.735983 1175.320895 860.232858 1183.824021 860.232858 1195.161521 L 860.232858 1235.315169 C 860.232858 1246.180274 868.735983 1255.155795 880.073484 1255.155795 L 1000.062032 1255.155795 C 1010.927136 1255.155795 1019.902658 1246.180274 1019.902658 1235.315169 L 1019.902658 1195.161521 C 1019.902658 1183.824021 1010.927136 1175.320895 1000.062032 1175.320895 L 980.221406 1175.320895 L 980.221406 935.343799 L 1000.062032 935.343799 C 1010.927136 935.343799 1019.902658 926.368278 1019.902658 915.030777 L 1019.902658 875.349525 C 1019.902658 864.012025 1010.927136 855.036503 1000.062032 855.036503 Z M 880.073484 855.036503 " transform="matrix(0.00826902,0,0,0.00826902,0,0)"/>
</g>
</svg>

<svg xmlns="http://www.w3.org/2000/svg" width="16pt" height="16pt" viewBox="0 0 16 16"><defs><linearGradient id="a" gradientUnits="userSpaceOnUse" x1="254" y1="233.5" x2="254" y2="254.667" gradientTransform="matrix(.03125 0 0 .03125 .33 6.72)"><stop offset="0" stop-opacity=".275"/><stop offset="1" stop-opacity="0"/></linearGradient><radialGradient id="b" gradientUnits="userSpaceOnUse" cx="450.909" cy="189.579" fx="450.909" fy="189.579" r="21.167" gradientTransform="matrix(0 -.03907 -.07032 0 24.742 31.798)"><stop offset="0" stop-opacity=".314"/><stop offset=".222" stop-opacity=".275"/><stop offset="1" stop-opacity="0"/></radialGradient><radialGradient id="c" gradientUnits="userSpaceOnUse" cx="450.909" cy="189.579" fx="450.909" fy="189.579" r="21.167" gradientTransform="matrix(0 .03907 .07032 0 -9.197 -3.764)"><stop offset="0" stop-opacity=".314"/><stop offset=".222" stop-opacity=".275"/><stop offset="1" stop-opacity="0"/></radialGradient><radialGradient id="d" gradientUnits="userSpaceOnUse" cx="450.909" cy="189.579" fx="450.909" fy="189.579" r="21.167" gradientTransform="matrix(0 -.03907 .07032 0 -9.197 31.798)"><stop offset="0" stop-opacity=".314"/><stop offset=".222" stop-opacity=".275"/><stop offset="1" stop-opacity="0"/></radialGradient><radialGradient id="e" gradientUnits="userSpaceOnUse" cx="450.909" cy="189.579" fx="450.909" fy="189.579" r="21.167" gradientTransform="matrix(0 .03907 -.07032 0 24.742 -3.764)"><stop offset="0" stop-opacity=".314"/><stop offset=".222" stop-opacity=".275"/><stop offset="1" stop-opacity="0"/></radialGradient><linearGradient id="f" gradientUnits="userSpaceOnUse" x1="940" y1="1695.118" x2="940" y2="175.118" gradientTransform="rotate(.882) scale(.00827)"><stop offset="0" stop-color="#a5d6a7"/><stop offset="1" stop-color="#c8e6c9"/></linearGradient><linearGradient id="g" gradientUnits="userSpaceOnUse" x1="249.189" y1="233.5" x2="249.189" y2="254.667" gradientTransform="matrix(.01495 0 0 .0547 7.521 -8.18)"><stop offset="0" stop-opacity=".275"/><stop offset="1" stop-opacity="0"/></linearGradient><linearGradient id="h" gradientUnits="userSpaceOnUse" x1="338.667" y1="233.5" x2="338.667" y2="-168.667" gradientTransform="matrix(.03125 0 0 .03125 0 6.72)"><stop offset="0" stop-color="#66bb6a"/><stop offset="1" stop-color="#81c784"/></linearGradient><linearGradient id="i" gradientUnits="userSpaceOnUse" x1="920" y1="1695.118" x2="920" y2="175.118"><stop offset="0" stop-color="#66bb6a"/><stop offset="1" stop-color="#81c784"/></linearGradient></defs><path d="M3.969 14.016h7.61v.664h-7.61zm0 0" fill="url(#a)"/><path d="M11.578 14.016h1.32v-.66h-1.32zm0 0" fill="url(#b)"/><path d="M3.969 14.016H2.645v.664h1.324zm0 0" fill="url(#c)"/><path d="M3.969 14.016H2.645v-.66h1.324zm0 0" fill="url(#d)"/><path d="M11.578 14.016h1.32v.664h-1.32zm0 0" fill="url(#e)"/><path d="M9.27 1.45H3.309a.66.66 0 0 0-.664.66v11.245c0 .368.296.66.664.66h8.93c.366 0 .66-.292.66-.66V5.078zm0 0" fill="url(#f)"/><path d="M2.645 13.098v.257c0 .368.296.66.664.66h8.93c.366 0 .66-.292.66-.66v-.257a.66.66 0 0 1-.66.664h-8.93a.664.664 0 0 1-.664-.664zm0 0" fill-opacity=".235"/><path d="M9.262 4.59h3.14l.496.496v.66H9.262zm0 0" fill="url(#g)"/><path d="M3.309 1.45a.66.66 0 0 0-.664.66v.25c0-.368.296-.665.664-.665h5.96l3.63 3.63v-.247L9.268 1.45zm0 0" fill="#f6f6f6" fill-opacity=".588"/><path d="M12.898 5.078L9.27 1.45v2.965c0 .367.296.664.664.664zm0 0" fill="url(#h)"/><path d="M9.27 4.258v.156c0 .367.296.664.664.664h2.964l-.156-.156H9.934a.664.664 0 0 1-.664-.664zm0 0" fill-opacity=".235"/><path d="M9.27 1.45v.245l3.382 3.383h.246zm0 0" fill="#fff" fill-opacity=".392"/><path d="M9.27 1.402a.047.047 0 0 0-.047.047v2.965c0 .395.316.711.71.711h2.965c.02 0 .04-.012.043-.031.008-.016.004-.035-.007-.051l-3.63-3.629c-.007-.008-.023-.012-.034-.012zm.046.16l3.47 3.47H9.933a.614.614 0 0 1-.618-.618zm0 0" fill="#212121"/><path d="M3.309 1.402a.708.708 0 0 0-.711.707v11.246c0 .391.316.707.71.707h8.93c.39 0 .707-.316.707-.707V5.078c0-.016-.004-.027-.011-.035l-3.63-3.629c-.007-.008-.019-.012-.034-.012zm0 .094H9.25l3.602 3.602v8.257c0 .34-.274.614-.614.614h-8.93a.613.613 0 0 1-.617-.614V2.11c0-.34.274-.613.618-.613zm0 0" fill="#212121"/><path d="M920.227 694.894c-11.337 0-20.313 8.976-20.313 20.313v39.682c0 11.337 8.976 20.313 20.313 20.313h39.681c11.338 0 20.313-8.976 20.313-20.313v-39.682c0-11.337-8.975-20.313-20.313-20.313zm-40.154 160.143c-11.337 0-19.84 8.975-19.84 20.313v39.68c0 11.338 8.503 20.314 19.84 20.314h19.841v239.977h-19.84c-11.338 0-19.841 8.503-19.841 19.84v40.154c0 10.865 8.503 19.84 19.84 19.84h119.989c10.865 0 19.84-8.975 19.84-19.84v-40.153c0-11.338-8.975-19.841-19.84-19.841h-19.84V935.344h19.84c10.865 0 19.84-8.976 19.84-20.313V875.35c0-11.338-8.975-20.313-19.84-20.313zm0 0" transform="rotate(.882) scale(.00827)" fill="url(#i)" stroke-width="11.339" stroke-linecap="round" stroke-linejoin="round" stroke="#212121"/></svg>
